dist/svgs/unicons/line/money-stack.svg

<svg xmlns="http://www.w3.org/2000/svg" viewBox="0 0 24 24"><path d="M22 17H2a1 1 0 000 2h20a1 1 0 000-2zm0 4H2a1 1 0 000 2h20a1 1 0 000-2zM6 7a1 1 0 101 1 1 1 0 00-1-1zm14-6H4a3 3 0 00-3 3v8a3 3 0 003 3h16a3 3 0 003-3V4a3 3 0 00-3-3zm1 11a1 1 0 01-1 1H4a1 1 0 01-1-1V4a1 1 0 011-1h16a1 1 0 011 1zm-9-7a3 3 0 103 3 3 3 0 00-3-3zm0 4a1 1 0 111-1 1 1 0 01-1 1zm6-2a1 1 0 101 1 1 1 0 00-1-1z"/></svg>

<svg xmlns="http://www.w3.org/2000/svg" viewBox="0 0 24 24"><path d="M22,17H2a1,1,0,0,0,0,2H22a1,1,0,0,0,0-2Zm0,4H2a1,1,0,0,0,0,2H22a1,1,0,0,0,0-2ZM6,7A1,1,0,1,0,7,8,1,1,0,0,0,6,7ZM20,1H4A3,3,0,0,0,1,4v8a3,3,0,0,0,3,3H20a3,3,0,0,0,3-3V4A3,3,0,0,0,20,1Zm1,11a1,1,0,0,1-1,1H4a1,1,0,0,1-1-1V4A1,1,0,0,1,4,3H20a1,1,0,0,1,1,1ZM12,5a3,3,0,1,0,3,3A3,3,0,0,0,12,5Zm0,4a1,1,0,1,1,1-1A1,1,0,0,1,12,9Zm6-2a1,1,0,1,0,1,1A1,1,0,0,0,18,7Z"/></svg>
